icon-themes/karasa_jaga_svg/sw/res/twopages_10x24.svg

<svg height="10" viewBox="0 0 24 10" width="24" xmlns="http://www.w3.org/2000/svg"><g fill="#8c8c8c"><path d="m3 0v10h4 1l3-3v-7zm1 1h6v5h-2-1v1 2h-3zm4 6h1.5625l-1.5625 1.5625z"/><path d="m13 0v10h4 1l3-3v-7zm1 1h6v5h-2-1v1 2h-3zm4 6h1.5625l-1.5625 1.5625z"/></g></svg>

<?xml version="1.0" encoding="UTF-8" standalone="no"?>
<svg
   height="14"
   viewBox="0 0 24 14"
   width="24"
   version="1.1"
   id="svg555"
   sodipodi:docname="twopages_10x24.svg"
   inkscape:version="1.2.2 (b0a8486541, 2022-12-01)"
   inkscape:export-filename="twopages_10x24.png"
   inkscape:export-xdpi="90"
   inkscape:export-ydpi="90"
   xmlns:inkscape="http://www.inkscape.org/namespaces/inkscape"
   xmlns:sodipodi="http://sodipodi.sourceforge.net/DTD/sodipodi-0.dtd"
   xmlns="http://www.w3.org/2000/svg"
   xmlns:svg="http://www.w3.org/2000/svg">
  <defs
     id="defs559" />
  <sodipodi:namedview
     id="namedview557"
     pagecolor="#505050"
     bordercolor="#ffffff"
     borderopacity="1"
     inkscape:showpageshadow="0"
     inkscape:pageopacity="0"
     inkscape:pagecheckerboard="1"
     inkscape:deskcolor="#505050"
     showgrid="false"
     inkscape:zoom="23.6"
     inkscape:cx="12.521186"
     inkscape:cy="5.4025424"
     inkscape:window-width="1366"
     inkscape:window-height="815"
     inkscape:window-x="1065"
     inkscape:window-y="38"
     inkscape:window-maximized="0"
     inkscape:current-layer="svg555" />
  <g
     fill="#8c8c8c"
     id="g553"
     transform="translate(0,2)"
     inkscape:export-filename="twopages_10x24.png"
     inkscape:export-xdpi="90"
     inkscape:export-ydpi="90">
    <path
       d="M 3,0 V 10 H 7 8 L 11,7 V 0 Z m 1,1 h 6 V 6 H 8 7 V 7 9 H 4 Z M 8,7 H 9.5625 L 8,8.5625 Z"
       id="path549" />
    <path
       d="m 13,0 v 10 h 4 1 L 21,7 V 0 Z m 1,1 h 6 v 5 h -2 -1 v 1 2 h -3 z m 4,6 h 1.5625 L 18,8.5625 Z"
       id="path551" />
  </g>
</svg>
